x-pack/solutions/observability/plugins/apm/public/components/shared/span_icon/icons/postgresql.svg

<svg width="16" height="16" viewBox="0 0 16 16" fill="none" xmlns="http://www.w3.org/2000/svg">
<path d="M15.938 9.58085C15.842 9.2991 15.5907 9.10285 15.2657 9.05576C15.1125 9.03358 14.937 9.04303 14.7293 9.08455C14.3673 9.15697 14.0987 9.18455 13.9027 9.18988C14.6425 7.97867 15.2441 6.59746 15.5904 5.29728C16.1504 3.19491 15.8512 2.23716 15.5015 1.80394C14.576 0.657277 13.2259 0.0412775 11.597 0.022429C10.728 0.012126 9.96523 0.17849 9.56729 0.298126C9.19679 0.234732 8.79841 0.199338 8.38041 0.192793C7.59685 0.180671 6.90454 0.346308 6.31298 0.686732C5.98548 0.579338 5.45985 0.427944 4.85285 0.331338C3.42523 0.104065 2.2746 0.281156 1.43298 0.857702C0.413851 1.55576 -0.058586 2.76861 0.028789 4.46255C0.056539 5.00037 0.366789 6.63673 0.855289 8.18861C1.13604 9.08061 1.43541 9.82134 1.7451 10.3904C2.18429 11.1974 2.65423 11.6726 3.18179 11.8433C3.47748 11.9388 4.01473 12.0057 4.57979 11.5493C4.65141 11.6335 4.74698 11.717 4.87379 11.7947C5.03485 11.8932 5.23179 11.9736 5.42848 12.0213C6.13729 12.1932 6.80123 12.1502 7.36766 11.9093C7.37116 12.007 7.37385 12.1004 7.3761 12.181C7.37985 12.3117 7.3836 12.4399 7.38854 12.5598C7.4221 13.3703 7.47898 14.0006 7.64748 14.4415C7.65673 14.4658 7.66916 14.5027 7.68229 14.5419C7.76635 14.7915 7.90691 15.2093 8.26454 15.5366C8.63485 15.8755 9.08279 15.9795 9.49304 15.9795C9.69879 15.9795 9.8951 15.9533 10.0673 15.9175C10.681 15.7899 11.3781 15.5956 11.8824 14.8994C12.3591 14.2412 12.5909 13.2499 12.6328 11.6879C12.6382 11.6437 12.6432 11.6015 12.648 11.5613L12.658 11.4788L12.7704 11.4884L12.7993 11.4902C13.4244 11.5179 14.1888 11.3893 14.6582 11.1779C15.0292 11.011 16.2178 10.4024 15.938 9.58085Z" fill="black"/>
<path d="M14.8691 9.74058C13.0103 10.1124 12.8825 9.50216 12.8825 9.50216C14.845 6.67834 15.6654 3.09392 14.9575 2.21664C13.026 -0.176386 9.68255 0.955372 9.62674 0.984705L9.6088 0.987856C9.24155 0.913917 8.83062 0.869917 8.36868 0.862584C7.52768 0.84925 6.88968 1.0764 6.40555 1.4324C6.40555 1.4324 0.441178 -0.950265 0.718616 4.42901C0.777616 5.57337 2.41012 13.088 4.35724 10.8182C5.06893 9.98822 5.75662 9.28646 5.75662 9.28646C6.09812 9.50646 6.50699 9.61871 6.93562 9.5784L6.96893 9.55101C6.95855 9.65404 6.9633 9.75483 6.98224 9.87416C6.48062 10.4176 6.62805 10.513 5.6253 10.7132C4.61062 10.916 5.20668 11.2769 5.59587 11.3714C6.06768 11.4857 7.15918 11.6478 7.89668 10.6466L7.8673 10.7609C8.0638 10.9136 8.2018 11.7538 8.17868 12.5156C8.15555 13.2773 8.14012 13.8002 8.29493 14.2087C8.44987 14.6172 8.60418 15.5363 9.92243 15.2624C11.0239 15.0335 11.5947 14.4403 11.6741 13.4509C11.7304 12.7475 11.858 12.8515 11.866 12.2226L11.9683 11.9249C12.0862 10.9714 11.9871 10.6637 12.6656 10.8068L12.8306 10.8209C13.33 10.8429 13.9837 10.7429 14.3674 10.57C15.1936 10.1983 15.6836 9.57749 14.8689 9.74058H14.8691Z" fill="#336791"/>
<path d="M6.75467 4.94072C6.58717 4.91812 6.43548 4.93903 6.35873 4.99539C6.31561 5.02709 6.30223 5.06381 6.29861 5.08909C6.28898 5.15606 6.33736 5.23012 6.36711 5.2683C6.45123 5.37642 6.57411 5.45072 6.69573 5.46709C6.71336 5.46951 6.73092 5.4706 6.74836 5.4706C6.95117 5.4706 7.13561 5.31745 7.15186 5.20442C7.17217 5.06284 6.96023 4.96848 6.75467 4.94078V4.94072ZM12.3037 4.94521C12.2877 4.83424 12.084 4.8026 11.8908 4.82866C11.6978 4.85472 11.5107 4.93921 11.5263 5.05042C11.5388 5.1369 11.6999 5.28454 11.8905 5.28454C11.9066 5.28454 11.9229 5.28351 11.9392 5.28127C12.0665 5.26418 12.1599 5.18581 12.2042 5.14066C12.2717 5.07181 12.3109 4.99509 12.3037 4.94521Z" fill="white"/>
<path d="M15.4876 9.69828C15.4167 9.49046 15.1886 9.42361 14.8096 9.49949C13.6843 9.72471 13.2813 9.56871 13.149 9.47422C14.0237 8.1821 14.7432 6.62016 15.1314 5.16289C15.3153 4.47258 15.4169 3.83149 15.4252 3.30895C15.4344 2.73543 15.3336 2.31398 15.1259 2.05652C14.2882 1.01865 13.0589 0.461918 11.5707 0.446645C10.5477 0.435494 9.68331 0.689373 9.51575 0.760766C9.16287 0.675676 8.77818 0.623433 8.35937 0.616766C7.59137 0.604706 6.9275 0.783009 6.37787 1.14646C6.13912 1.06028 5.52212 0.854888 4.76756 0.737009C3.46306 0.533373 2.42643 0.687676 1.68668 1.19586C0.803996 1.80228 0.396496 2.88628 0.475434 4.41768C0.501996 4.93289 0.804746 6.51786 1.2825 8.03574C1.91137 10.0336 2.595 11.1645 3.31425 11.3972C3.39843 11.4244 3.4955 11.4434 3.60256 11.4434C3.86493 11.4434 4.18662 11.3288 4.52131 10.9386C4.92953 10.4637 5.35181 10.0004 5.78762 9.54913C6.07037 9.69628 6.381 9.77846 6.69868 9.78671C6.69931 9.79477 6.70012 9.80283 6.70087 9.81083C6.64619 9.87406 6.59264 9.93821 6.54025 10.0033C6.32012 10.2742 6.27431 10.3306 5.56575 10.4721C5.36418 10.5125 4.82887 10.6194 4.821 10.9833C4.8125 11.3809 5.45381 11.5479 5.52687 11.5656C5.7815 11.6274 6.02681 11.6579 6.26075 11.6579C6.82968 11.6579 7.33037 11.4765 7.7305 11.1257C7.71818 12.543 7.77912 13.9396 7.95462 14.3651C8.09837 14.7135 8.4495 15.5648 9.55862 15.5648C9.72137 15.5648 9.9005 15.5464 10.0976 15.5054C11.2551 15.2648 11.7578 14.7687 11.9522 13.6749C12.0563 13.0904 12.2349 11.6946 12.3189 10.9459C12.4961 10.9995 12.7243 11.024 12.971 11.024C13.4855 11.024 14.0792 10.918 14.4515 10.7504C14.8697 10.562 15.6245 10.0999 15.4876 9.69828ZM12.731 4.63889C12.7272 4.85992 12.6958 5.06058 12.6626 5.27004C12.6267 5.49531 12.5897 5.72822 12.5804 6.01095C12.5712 6.2861 12.6067 6.57216 12.6409 6.84883C12.7102 7.40762 12.7812 7.98289 12.5062 8.55052C12.4605 8.47202 12.4198 8.39088 12.3843 8.30755C12.3501 8.22719 12.2759 8.0981 12.1731 7.91943C11.7731 7.22392 10.8366 5.59519 11.316 4.93058C11.4588 4.73277 11.8212 4.52937 12.731 4.63889ZM11.6282 0.894221C12.9616 0.922766 14.0164 1.40646 14.7631 2.3318C15.3359 3.04155 14.7052 6.27107 12.8794 9.05719C12.861 9.03455 12.8426 9.01198 12.824 8.98949L12.8009 8.96149C13.2727 8.20592 13.1804 7.45834 13.0983 6.79555C13.0646 6.52355 13.0327 6.26665 13.0408 6.02531C13.0492 5.76955 13.0841 5.55016 13.1178 5.33804C13.1592 5.07665 13.2014 4.80616 13.1898 4.48731C13.1985 4.45386 13.202 4.41434 13.1974 4.36743C13.1677 4.06168 12.8077 3.14658 12.074 2.31834C11.6726 1.86531 11.0873 1.35834 10.2881 1.0164C10.6319 0.947312 11.1019 0.882888 11.6282 0.894221ZM4.16712 10.653C3.79837 11.0829 3.54375 11.0005 3.46 10.9735C2.91437 10.797 2.28125 9.67871 1.72306 7.90537C1.24006 6.37095 0.957809 4.82798 0.935434 4.39531C0.864934 3.02695 1.207 2.07331 1.95218 1.56083C3.16493 0.726888 5.15881 1.22604 5.96 1.47919C5.9485 1.49022 5.9365 1.50052 5.92512 1.51174C4.61037 2.79925 4.64156 4.99901 4.64481 5.13349C4.64468 5.18537 4.64918 5.25883 4.65531 5.35986C4.67793 5.72986 4.72006 6.41846 4.60756 7.19828C4.50306 7.92295 4.73343 8.63222 5.2395 9.14428C5.29143 9.19673 5.34602 9.24665 5.40306 9.29386C5.17781 9.5278 4.68825 10.0451 4.16712 10.653ZM5.57206 8.83525C5.16418 8.42252 4.97893 7.84846 5.06375 7.2601C5.1825 6.43634 5.13868 5.71889 5.11512 5.33343C5.11181 5.27949 5.10887 5.23222 5.10718 5.19495C5.29925 5.0298 6.18931 4.56737 6.82406 4.7084C7.11368 4.77271 7.29018 4.96398 7.36356 5.29295C7.74331 6.99616 7.41381 7.70604 7.14906 8.27652C7.0945 8.39404 7.04293 8.50513 6.99893 8.62004L6.96481 8.70889C6.87843 8.93349 6.79806 9.14234 6.74825 9.34065C6.31462 9.33943 5.89281 9.1598 5.57206 8.83519V8.83525ZM5.63862 11.1322C5.512 11.1016 5.39812 11.0483 5.33131 11.0041C5.38712 10.9786 5.48643 10.944 5.65868 10.9096C6.49225 10.7432 6.621 10.6257 6.90212 10.2796C6.96656 10.2002 7.03962 10.1103 7.14081 10.0007L7.14093 10.0006C7.29162 9.83695 7.36056 9.86471 7.48556 9.91501C7.58687 9.95561 7.68556 10.0788 7.72556 10.2143C7.7445 10.2783 7.76575 10.3997 7.69618 10.4943C7.10893 11.2916 6.25318 11.2814 5.63862 11.1322ZM10.0011 15.0687C8.98131 15.2806 8.62025 14.776 8.38231 14.1993C8.22875 13.8269 8.15325 12.1477 8.20681 10.2934C8.2075 10.2687 8.20387 10.2449 8.19687 10.2225C8.19061 10.1782 8.18109 10.1344 8.16837 10.0914C8.08875 9.82162 7.89468 9.59592 7.66187 9.50234C7.56937 9.46519 7.39962 9.39701 7.19562 9.44761C7.23912 9.2738 7.31456 9.07749 7.39637 8.86495L7.43068 8.77555C7.46931 8.67477 7.51781 8.57034 7.56906 8.4598C7.84612 7.86295 8.22556 7.04543 7.81375 5.19858C7.6595 4.50683 7.14437 4.16901 6.3635 4.24749C5.89537 4.29446 5.46706 4.47762 5.25343 4.58265C5.2075 4.60519 5.1655 4.62701 5.12625 4.64822C5.18587 3.95125 5.41112 2.64871 6.25375 1.82458C6.78431 1.3058 7.49087 1.04955 8.35175 1.06337C10.048 1.09028 11.1357 1.9344 11.7496 2.63786C12.2786 3.24398 12.5651 3.85458 12.6794 4.18392C11.8197 4.09913 11.235 4.26368 10.9386 4.67458C10.2938 5.5684 11.2914 7.30319 11.7708 8.13695C11.8587 8.28974 11.9346 8.4218 11.9585 8.47792C12.1146 8.84483 12.3167 9.0898 12.4643 9.26859C12.5096 9.32337 12.5534 9.37652 12.5868 9.42295C12.3264 9.49574 11.8587 9.66392 11.9014 10.5046C11.867 10.9264 11.6226 12.9013 11.4984 13.5991C11.3344 14.5209 10.9846 14.8642 10.0011 15.0688V15.0687ZM14.2576 10.3453C13.9913 10.4651 13.5457 10.555 13.1225 10.5743C12.655 10.5956 12.417 10.5236 12.361 10.4793C12.3347 9.95537 12.5358 9.90065 12.7486 9.84271C12.7821 9.83361 12.8147 9.82471 12.8462 9.81404C12.8657 9.82949 12.8872 9.84483 12.9107 9.85986C13.2864 10.1003 13.9566 10.1263 14.9028 9.93689L14.9132 9.93489C14.7856 10.0506 14.5672 10.2059 14.2576 10.3453Z" fill="white"/>
</svg>

<svg xmlns="http://www.w3.org/2000/svg" width="16" height="16" fill="none"><path fill="#000" d="M15.938 9.58c-.096-.28-.347-.477-.672-.524a1.6 1.6 0 0 0-.537.029c-.362.072-.63.1-.826.105.74-1.211 1.341-2.593 1.687-3.893.56-2.102.261-3.06-.088-3.493C14.576.657 13.226.04 11.597.022a7.1 7.1 0 0 0-2.03.276A8 8 0 0 0 8.38.193C7.597.18 6.905.346 6.313.687A10 10 0 0 0 4.853.33C3.425.104 2.275.281 1.433.858.413 1.556-.059 2.768.029 4.463.057 5 .367 6.637.855 8.189c.281.892.58 1.632.89 2.201.44.807.91 1.283 1.437 1.453.295.096.833.163 1.398-.294q.105.128.294.246c.16.098.358.179.554.226.71.172 1.373.13 1.94-.112l.008.272.013.379c.033.81.09 1.44.258 1.881.01.025.022.062.035.1.084.25.225.668.583.996.37.338.818.442 1.228.442.206 0 .402-.026.574-.061.614-.128 1.311-.322 1.815-1.019.477-.658.709-1.65.75-3.211l.016-.127.01-.082.112.01.03.001c.624.028 1.389-.1 1.858-.312.371-.167 1.56-.776 1.28-1.597"/><path fill="#336791" d="M14.87 9.74c-1.86.372-1.987-.238-1.987-.238 1.962-2.824 2.782-6.408 2.075-7.285C13.026-.176 9.683.955 9.627.985l-.018.003a7 7 0 0 0-1.24-.125c-.841-.014-1.48.213-1.963.57 0 0-5.965-2.383-5.687 2.996.059 1.144 1.691 8.659 3.638 6.39.712-.83 1.4-1.533 1.4-1.533.341.22.75.333 1.179.292l.033-.027c-.01.103-.006.204.013.323-.501.544-.354.639-1.357.84-1.014.202-.418.563-.03.657.473.115 1.564.277 2.302-.724l-.03.114c.197.153.335.993.312 1.755s-.039 1.284.116 1.693c.155.408.31 1.327 1.627 1.053 1.102-.229 1.673-.822 1.752-1.811.056-.703.184-.6.192-1.228l.102-.298c.118-.954.02-1.261.698-1.118l.165.014c.499.022 1.153-.078 1.536-.251.827-.372 1.317-.993.502-.83"/><path fill="#fff" d="M6.755 4.94c-.168-.022-.32-.001-.396.055a.14.14 0 0 0-.06.094c-.01.067.038.141.068.18a.52.52 0 0 0 .329.198l.052.004c.203 0 .388-.154.404-.267.02-.141-.192-.236-.397-.263m5.549.005c-.016-.11-.22-.142-.413-.116s-.38.11-.365.221c.013.087.174.235.364.235l.05-.004a.47.47 0 0 0 .264-.14c.068-.07.107-.146.1-.196"/><path fill="#fff" d="M15.488 9.698c-.071-.208-.3-.274-.678-.199-1.126.226-1.529.07-1.661-.025.875-1.292 1.594-2.854 1.982-4.311.184-.69.286-1.332.294-1.854.01-.574-.091-.995-.3-1.252-.837-1.038-2.066-1.595-3.554-1.61C10.548.435 9.683.689 9.516.76A5.3 5.3 0 0 0 8.359.617c-.768-.012-1.431.166-1.981.53a9 9 0 0 0-1.61-.41c-1.305-.204-2.342-.05-3.081.459-.883.606-1.29 1.69-1.212 3.222.027.515.33 2.1.808 3.618.628 1.998 1.312 3.129 2.031 3.361a1 1 0 0 0 .289.046c.262 0 .584-.114.918-.504q.613-.713 1.267-1.39c.282.147.593.23.91.238l.003.024a7 7 0 0 0-.16.192c-.22.271-.267.328-.975.47-.202.04-.737.146-.745.51-.008.398.633.565.706.583q.383.092.734.092c.569 0 1.07-.181 1.47-.532-.013 1.417.048 2.814.224 3.24.143.348.495 1.199 1.604 1.199q.242 0 .539-.06c1.157-.24 1.66-.736 1.854-1.83.104-.585.283-1.98.367-2.73.177.054.405.079.652.079.515 0 1.108-.106 1.48-.274.419-.188 1.173-.65 1.037-1.052m-2.757-5.06a4.4 4.4 0 0 1-.068.632 6 6 0 0 0-.083.741c-.009.275.027.561.06.838.07.559.141 1.134-.134 1.702a2 2 0 0 1-.122-.243 5 5 0 0 0-.21-.389c-.4-.695-1.337-2.324-.858-2.988.143-.198.505-.402 1.415-.292M11.628.895c1.334.029 2.388.512 3.135 1.438.573.71-.058 3.94-1.884 6.725l-.055-.068-.023-.028c.472-.755.38-1.503.297-2.165-.033-.272-.065-.53-.057-.77.008-.256.043-.476.077-.688.041-.261.083-.532.072-.85a.3.3 0 0 0 .007-.12c-.03-.306-.39-1.221-1.123-2.05a5.05 5.05 0 0 0-1.786-1.302c.344-.069.814-.133 1.34-.122m-7.46 9.759c-.37.43-.624.348-.708.32-.546-.176-1.179-1.294-1.737-3.068C1.24 6.371.958 4.828.935 4.395c-.07-1.368.272-2.322 1.017-2.834C3.165.727 5.16 1.226 5.96 1.479l-.035.033C4.61 2.799 4.642 4.999 4.645 5.133q0 .077.01.227c.023.37.065 1.058-.047 1.838a2.28 2.28 0 0 0 .795 2.096c-.225.234-.715.751-1.236 1.359m1.404-1.818a1.85 1.85 0 0 1-.508-1.575 9.2 9.2 0 0 0 .051-1.927l-.008-.138c.192-.165 1.082-.628 1.717-.487.29.065.466.256.54.585.38 1.703.05 2.413-.215 2.984A5 5 0 0 0 7 8.62l-.034.089c-.087.224-.167.433-.217.632a1.66 1.66 0 0 1-1.176-.506m.067 2.297a1 1 0 0 1-.308-.128c.056-.025.155-.06.328-.094.833-.167.962-.284 1.243-.63.065-.08.138-.17.239-.28.15-.163.22-.135.345-.085.1.04.2.164.24.3.019.063.04.185-.03.28-.587.797-1.443.786-2.057.637M10 15.07c-1.02.212-1.38-.293-1.619-.87-.153-.372-.229-2.051-.175-3.906a.2.2 0 0 0-.01-.07.913.913 0 0 0-.535-.72c-.093-.038-.262-.106-.466-.055.043-.174.119-.37.2-.583l.035-.09c.038-.1.087-.205.138-.315.277-.597.657-1.415.245-3.261-.154-.692-.67-1.03-1.45-.952a3.4 3.4 0 0 0-1.238.401c.06-.697.285-2 1.128-2.823.53-.52 1.237-.775 2.098-.762 1.696.027 2.784.871 3.398 1.575.529.606.815 1.217.93 1.546-.86-.085-1.445.08-1.741.49-.645.894.352 2.63.832 3.463.088.153.164.285.188.34.156.368.358.613.505.792.046.054.09.108.123.154-.26.073-.728.24-.686 1.082a61 61 0 0 1-.403 3.094c-.164.922-.513 1.265-1.497 1.47m4.257-4.724c-.267.12-.712.21-1.135.23-.468.02-.706-.051-.762-.096-.026-.524.175-.578.388-.636q.05-.014.097-.029l.065.046c.375.24 1.046.266 1.992.077l.01-.002a2.6 2.6 0 0 1-.655.41"/></svg>
